X: 1
T: Maudabawn Chapel
R: reel
M: 4/4
L: 1/8
K: Gmaj
|:G3 D E2 DB,|G,A,B,D EGDB,|G,A,B,D GABd|gabg eaaf|
|gbag efge|dged B^cde|g2 fa gedB|AcBA GEED:|
|:E2 BE dEBE|Ed^cB AFDF|~E3 F GFGB|AF (3FFF DFAF|
|EBBA B3 B|BAGA B^cde|f2 af gfe^c|dBAF GEED:|


Tune 302	Setting 13065

